Facilitet_punkt_5800_Piktogrammer/Cirkel/SVG/UDSTILLING.svg

<svg xmlns="http://www.w3.org/2000/svg" width="5.5mm" height="5.5mm" viewBox="0 0 15.591 15.591">
  <rect width="15.591" height="15.591" rx="7.795" fill="#031E3A"/>
  <g>
    <path d="M13.045,9.393a.684.684,0,0,0-1.367,0,.667.667,0,0,0,.139.392,2.176,2.176,0,0,1-1.823.881,2.3,2.3,0,0,1-1.711-.8A.685.685,0,1,0,7.3,9.856a2.172,2.172,0,0,1-1.766.81A2.325,2.325,0,0,1,3.762,9.8a.669.669,0,0,0,.15-.41.683.683,0,1,0-1,.6.327.327,0,0,0-.018.089V12.6a.336.336,0,0,0,.671,0V10.554a2.886,2.886,0,0,0,1.967.783,2.87,2.87,0,0,0,1.928-.685V12.6a.336.336,0,0,0,.671,0V10.652a2.889,2.889,0,0,0,1.863.685,2.835,2.835,0,0,0,2.032-.785V12.6a.336.336,0,0,0,.671,0V10.078a.327.327,0,0,0-.018-.089A.679.679,0,0,0,13.045,9.393Z" fill="#fff"/>
    <path d="M4.352,7.982h7.16a.335.335,0,0,0,.335-.335V3a.335.335,0,0,0-.335-.336H4.352A.335.335,0,0,0,4.017,3V7.647A.335.335,0,0,0,4.352,7.982ZM4.688,3.33h6.488V7.311H4.688Z" fill="#fff"/>
  </g>
</svg>

<?xml version="1.0" encoding="UTF-8"?>
<svg xmlns="http://www.w3.org/2000/svg" viewBox="0 0 15.59 15.59">
  <defs>
    <style>
      .cls-1 {
        fill: #021e3a;
      }

      .cls-1, .cls-2 {
        stroke-width: 0px;
      }

      .cls-2 {
        fill: #fff;
      }
    </style>
  </defs>
  <g id="Cirkel">
    <rect class="cls-1" x="0" y="0" width="15.59" height="15.59" rx="7.8" ry="7.8"/>
  </g>
  <g id="ICONS">
    <g>
      <path class="cls-2" d="M13.04,9.39c0-.38-.31-.68-.68-.68s-.68.31-.68.68c0,.15.06.28.14.39-.22.3-.77.88-1.82.88-.85,0-1.42-.47-1.71-.8.12-.12.2-.29.2-.48,0-.38-.31-.68-.68-.68s-.68.31-.68.68c0,.18.07.34.19.46-.25.31-.79.81-1.77.81-.91,0-1.5-.55-1.77-.86.09-.12.15-.25.15-.41,0-.38-.31-.68-.68-.68s-.68.31-.68.68c0,.26.15.48.37.6,0,.03-.02.06-.02.09v2.52c0,.19.15.34.34.34s.34-.15.34-.34v-2.04c.42.38,1.07.78,1.97.78s1.52-.34,1.93-.69v1.94c0,.19.15.34.34.34s.34-.15.34-.34v-1.94c.42.35,1.04.69,1.86.69.99,0,1.64-.4,2.03-.79v2.04c0,.19.15.34.34.34s.34-.15.34-.34v-2.52s0-.06-.02-.09c.21-.12.37-.33.37-.6Z"/>
      <path class="cls-2" d="M4.35,7.98h7.16c.19,0,.34-.15.34-.34V2.99c0-.19-.15-.34-.34-.34h-7.16c-.19,0-.34.15-.34.34v4.65c0,.19.15.34.34.34ZM4.69,3.33h6.49v3.98h-6.49v-3.98Z"/>
    </g>
  </g>
</svg>
